muebles/img/engineer.svg

<svg width="41" height="39" viewBox="0 0 41 39" fill="none" xmlns="http://www.w3.org/2000/svg">
<path d="M33.3125 20.2654V18.7035L33.8647 18.5067C36.6002 17.5311 38.4375 15.0089 38.4375 12.2302V9.14062C39.1441 9.14062 39.7188 8.59402 39.7188 7.92188V6.70312C39.7188 6.03098 39.1441 5.48438 38.4375 5.48438H38.3997C38.0794 2.74645 35.6341 0.609375 32.6719 0.609375H27.5469C24.5846 0.609375 22.1387 2.74645 21.819 5.48438H21.7812C21.0746 5.48438 20.5 6.03098 20.5 6.70312V7.92188C20.5 8.59402 21.0746 9.14062 21.7812 9.14062H23.0625V10.1747L22.1099 11.533C21.8946 11.8408 21.7812 12.1985 21.7812 12.5671C21.7812 13.3167 22.2194 13.9906 22.9248 14.327L23.0625 14.3922V15.8438C23.0625 17.5238 24.4994 18.8906 26.2656 18.8906H28.1875V20.1849L27.4328 20.2806C23.7947 20.7425 20.7402 22.9978 19.3526 26.2031H16.0156V18.2812H19.8594V13.4062H10.8906V15.2344H9.60938V13.4062H5.76562V9.75H9.60938V3.65625H0.640625V9.75H4.48438V13.4062H0.640625V18.2812H9.60938V16.4531H10.8906V18.2812H14.7344V26.2031H12.1719V21.3281H8.96875C7.20255 21.3281 5.76562 22.695 5.76562 24.375V35.3438C5.76562 37.0238 7.20255 38.3906 8.96875 38.3906H27.5469V35.9531H33.57C37.3138 35.9531 40.3594 33.0555 40.3594 29.4944C40.3594 25.2866 37.4855 21.5573 33.3125 20.2654ZM1.92188 4.875H8.32812V8.53125H1.92188V4.875ZM8.32812 17.0625H1.92188V14.625H8.32812V17.0625ZM12.1719 14.625H18.5781V17.0625H12.1719V14.625ZM37.1562 12.2302C37.1562 14.5031 35.6527 16.5671 33.415 17.3654L33.3125 17.4019V16.1484L34.7648 15.1125C35.4599 14.6159 35.875 13.8261 35.875 12.9998C35.875 11.6123 34.7437 10.4715 33.3125 10.3673V9.14062H37.1562V12.2302ZM27.5469 1.82812H32.6719C34.9262 1.82812 36.7924 3.42103 37.105 5.48438H23.1138C23.4264 3.42103 25.2925 1.82812 27.5469 1.82812ZM21.7812 6.70312H38.4375V7.92188H21.7812V6.70312ZM26.2656 17.6719C25.206 17.6719 24.3438 16.8517 24.3438 15.8438V13.639L23.4981 13.2368C23.2291 13.1089 23.0625 12.8523 23.0625 12.5671C23.0625 12.4392 23.1022 12.3155 23.1759 12.2094L24.3438 10.544V9.14062H32.0312V11.5781H33.0992C33.923 11.5781 34.5938 12.2161 34.5938 12.9998C34.5938 13.4446 34.3702 13.8706 33.9954 14.1375L32.0312 15.5391V20.7188C32.0312 21.3909 31.4566 21.9375 30.75 21.9375C30.0434 21.9375 29.4688 21.3909 29.4688 20.7188V17.6719H26.2656ZM8.96875 22.5469H10.8906V26.2031H8.96875C7.90916 26.2031 7.04688 25.3829 7.04688 24.375C7.04688 23.3671 7.90916 22.5469 8.96875 22.5469ZM26.2656 37.1719H8.96875C7.90916 37.1719 7.04688 36.3517 7.04688 35.3438V26.7967C7.58372 27.1836 8.24484 27.4219 8.96875 27.4219H26.2656V29.8594C24.8524 29.8594 23.7031 30.9526 23.7031 32.2969V33.5156C23.7031 34.8599 24.8524 35.9531 26.2656 35.9531V37.1719ZM28.8281 34.7344H26.2656C25.559 34.7344 24.9844 34.1878 24.9844 33.5156V32.2969C24.9844 31.6247 25.559 31.0781 26.2656 31.0781H27.3912C27.7333 31.0781 28.0549 31.2049 28.2977 31.4352L28.8281 31.9398V34.7344ZM33.57 34.7344H30.1094V32.2969H32.5944C33.6411 32.2969 34.6258 31.9087 35.367 31.2043C36.1075 30.5004 36.5156 29.5638 36.5156 28.5669V26.8125H35.2344V28.5669C35.2344 29.2384 34.9595 29.8685 34.4611 30.3426C33.9691 30.81 33.2888 31.0781 32.5944 31.0781H29.734L29.2035 30.5736C28.7564 30.1482 28.1721 29.91 27.5469 29.874V26.2031H20.755C22.0529 23.648 24.5994 21.8699 27.6026 21.489L28.3022 21.4006C28.6142 22.4116 29.5873 23.1562 30.75 23.1562C31.8717 23.1562 32.8167 22.4628 33.1632 21.5067C36.6777 22.7047 39.0781 25.8997 39.0781 29.4944C39.0781 32.384 36.6072 34.7344 33.57 34.7344Z" fill="black"/>
<path d="M3.20312 6.09375H7.04688V7.3125H3.20312V6.09375Z" fill="black"/>
<path d="M31.3906 25.5938H33.9531V26.8125H31.3906V25.5938Z" fill="black"/>
</svg>

<svg width="41" height="39" fill="none" xmlns="http://www.w3.org/2000/svg"><path d="M33.313 20.265v-1.562l.552-.196c2.735-.976 4.572-3.498 4.572-6.277V9.14c.707 0 1.282-.546 1.282-1.218V6.703c0-.672-.575-1.219-1.282-1.219H38.4C38.08 2.746 35.634.61 32.672.61h-5.125c-2.962 0-5.408 2.137-5.728 4.875h-.038c-.706 0-1.281.547-1.281 1.22v1.218c0 .672.575 1.219 1.281 1.219h1.282v1.034l-.953 1.358a1.797 1.797 0 00-.329 1.034c0 .75.438 1.424 1.144 1.76l.137.065v1.452c0 1.68 1.437 3.047 3.204 3.047h1.922v1.294l-.755.096c-3.638.462-6.693 2.717-8.08 5.922h-3.337v-7.922h3.843v-4.875h-8.968v1.828H9.609v-1.828H5.766V9.75h3.843V3.656H.641V9.75h3.843v3.656H.641v4.875h8.968v-1.828h1.282v1.828h3.843v7.922h-2.562v-4.875H8.969c-1.766 0-3.203 1.367-3.203 3.047v10.969c0 1.68 1.437 3.047 3.203 3.047h18.578v-2.438h6.023c3.744 0 6.79-2.898 6.79-6.459 0-4.207-2.874-7.937-7.047-9.229zM1.922 4.875h6.406v3.656H1.922V4.875zm6.406 12.188H1.922v-2.438h6.406v2.438zm3.844-2.438h6.406v2.438h-6.406v-2.438zm24.984-2.395c0 2.273-1.503 4.337-3.741 5.135l-.102.037v-1.254l1.452-1.035A2.614 2.614 0 0035.875 13c0-1.388-1.131-2.528-2.563-2.633V9.141h3.844v3.09zm-9.61-10.402h5.126c2.254 0 4.12 1.593 4.433 3.656H23.114c.312-2.063 2.178-3.656 4.433-3.656zm-5.765 4.875h16.657v1.219H21.78V6.703zm4.485 10.969c-1.06 0-1.922-.82-1.922-1.828v-2.205l-.846-.402a.742.742 0 01-.436-.67c0-.128.04-.252.114-.358l1.168-1.665V9.141h7.687v2.437H33.1c.824 0 1.495.638 1.495 1.422 0 .445-.224.87-.599 1.137l-1.964 1.402v5.18c0 .672-.574 1.218-1.281 1.218s-1.281-.546-1.281-1.218v-3.047h-3.203zM8.969 22.547h1.922v3.656H8.969c-1.06 0-1.922-.82-1.922-1.828s.862-1.828 1.922-1.828zm17.297 14.625H8.969c-1.06 0-1.922-.82-1.922-1.828v-8.547a3.276 3.276 0 001.922.625h17.297v2.437c-1.414 0-2.563 1.094-2.563 2.438v1.219c0 1.344 1.15 2.437 2.563 2.437v1.219zm2.562-2.438h-2.562c-.707 0-1.282-.546-1.282-1.218v-1.22c0-.671.575-1.218 1.282-1.218h1.125c.342 0 .664.127.907.357l.53.505v2.794zm4.742 0h-3.46v-2.437h2.484a4.002 4.002 0 002.773-1.093 3.615 3.615 0 001.149-2.637v-1.755h-1.282v1.755c0 .671-.275 1.302-.773 1.776a2.731 2.731 0 01-1.867.735h-2.86l-.53-.504a2.599 2.599 0 00-1.657-.7v-3.67h-6.792c1.298-2.556 3.844-4.334 6.848-4.715l.7-.088c.311 1.01 1.284 1.755 2.447 1.755 1.122 0 2.067-.693 2.413-1.65 3.515 1.199 5.915 4.394 5.915 7.988 0 2.89-2.47 5.24-5.508 5.24z" fill="#000"/><path d="M3.203 6.094h3.844v1.218H3.203V6.095zm28.187 19.5h2.563v1.218h-2.562v-1.218z" fill="#000"/></svg>
